brandFactory_export/3.Masa/Hotel_3Masa.svg

<?xml version="1.0" encoding="UTF-8"?>
<svg width="24px" height="24px" viewBox="0 0 24 24" version="1.1" xmlns="http://www.w3.org/2000/svg" xmlns:xlink="http://www.w3.org/1999/xlink">
    <title>3.Masa/Hotel_3Masa</title>
    <g id="Symbols" stroke="none" stroke-width="1" fill="none" fill-rule="evenodd">
        <g id="3.Masa/Hotel_3Masa" fill="#5CB615" fill-rule="nonzero">
            <path d="M12.3058824,0.0100840336 C14.6184874,0.0638655462 23.6235294,0.978151261 23.6235294,11.8420168 C23.6235294,22.7260504 14.6084034,23.5731092 12.3529412,23.6168067 C12.0302521,23.6201681 11.6336134,23.6268908 11.2705882,23.6201681 C8.89747899,23.5865546 0,22.7294118 0,11.7747899 C0,0.833613445 8.81680672,0.0235294118 11.1865546,0 C11.5563025,0 11.9630252,0.00336134454 12.3058824,0.0100840336 Z M16.4,5.64369748 L13.8084034,5.64369748 C13.5361345,5.64369748 13.3176471,5.86554622 13.3176471,6.13445378 L13.3176471,10.2756303 L10.2991597,10.2756303 L10.2991597,6.13445378 C10.2991597,5.86218487 10.0773109,5.64369748 9.80840336,5.64369748 L7.21680672,5.64369748 C6.94453782,5.64369748 6.72605042,5.86554622 6.72605042,6.13445378 L6.72605042,17.4957983 C6.72605042,17.7680672 6.94789916,17.9865546 7.21680672,17.9865546 L9.80840336,17.9865546 C10.0806723,17.9865546 10.2991597,17.7647059 10.2991597,17.4957983 L10.2991597,13.2033613 L13.3176471,13.2033613 L13.3176471,17.4957983 C13.3176471,17.7680672 13.5394958,17.9865546 13.8084034,17.9865546 L16.4,17.9865546 C16.6722689,17.9865546 16.8907563,17.7647059 16.8907563,17.4957983 L16.8907563,6.13445378 C16.8907563,5.86218487 16.6722689,5.64369748 16.4,5.64369748 Z" id="Hotel_3Masa"></path>
        </g>
    </g>
</svg>

<svg width="24" height="24" viewBox="0 0 24 24" xmlns="http://www.w3.org/2000/svg"><path d="M12.306.01c2.312.054 11.318.968 11.318 11.832 0 10.884-9.016 11.731-11.271 11.775-.323.003-.72.01-1.082.003C8.897 23.587 0 22.73 0 11.775 0 .834 8.817.024 11.187 0c.37 0 .776.003 1.119.01zM16.4 5.644h-2.592a.491.491 0 00-.49.49v4.142h-3.019V6.134a.491.491 0 00-.49-.49H7.216a.491.491 0 00-.49.49v11.362c0 .272.22.49.49.49h2.591c.273 0 .491-.221.491-.49v-4.293h3.019v4.293c0 .272.221.49.49.49H16.4c.272 0 .49-.221.49-.49V6.134a.49.49 0 00-.49-.49z" fill="#5CB615" fill-rule="nonzero"/></svg>
